X:1
T:Mr. James Davidson's (New Pitsligo)
T:Mr. James Davidson's (New Pitsligo)
T:Alexander Walker
C:Alexander Walker
L:1/8
M:2/2
K:Emin
V:1 treble 
V:1
 B | e2 eg fdAF | e2 eb geeb | geef dAFD | GBAF E2 E :| e | BEGE ADFD | B(EG)(E e)(EG)E | %8
 BEGE ADFD | GBAF (E2 E)F | EBGB ADFD | EBGB | EGBe | gef^c dDDF | GBAF E2 E || %15

